symbols/web/add_link/materialsymbolsoutlined/add_link_wght700_24px.svg

<svg xmlns="http://www.w3.org/2000/svg" height="24" width="24"><path d="M10.625 17.85H7q-2.425 0-4.137-1.713Q1.15 14.425 1.15 12t1.713-4.138Q4.575 6.15 7 6.15h3.625V9.3H7q-1.125 0-1.912.787Q4.3 10.875 4.3 12t.788 1.912Q5.875 14.7 7 14.7h3.625Zm-3.25-4.65v-2.4h9.25v2.4ZM22.85 12H19.7q0-1.125-.787-1.913Q18.125 9.3 17 9.3h-3.625V6.15H17q2.425 0 4.138 1.712Q22.85 9.575 22.85 12Zm-5.4 8.85v-2.825h-2.8V15.65h2.8v-2.8h2.4v2.8h2.8v2.375h-2.8v2.825Z"/></svg>

<svg xmlns="http://www.w3.org/2000/svg" height="24" width="24"><path d="M10.625 17.85H7Q4.575 17.85 2.863 16.137Q1.15 14.425 1.15 12Q1.15 9.575 2.863 7.862Q4.575 6.15 7 6.15H10.625V9.3H7Q5.875 9.3 5.088 10.087Q4.3 10.875 4.3 12Q4.3 13.125 5.088 13.912Q5.875 14.7 7 14.7H10.625ZM7.375 13.2V10.8H16.625V13.2ZM22.85 12H19.7Q19.7 10.875 18.913 10.087Q18.125 9.3 17 9.3H13.375V6.15H17Q19.425 6.15 21.138 7.862Q22.85 9.575 22.85 12ZM17.45 20.85V18.025H14.65V15.65H17.45V12.85H19.85V15.65H22.65V18.025H19.85V20.85Z"/></svg>
